dist/img/bruut-logo.svg

<svg width="133" height="31" viewBox="0 0 154 31" fill="none" xmlns="http://www.w3.org/2000/svg">
<path d="M99.686 0.560974H89.5253V17.0841C89.5253 18.2971 89.2609 19.2389 88.7335 19.9093C88.2052 20.566 87.4562 20.8938 86.486 20.8938C85.5016 20.8938 84.7381 20.5584 84.1959 19.8879C83.6533 19.203 83.3827 18.2689 83.3827 17.0841V0.560974H73.6616H73.0879H63.3668V17.0841C63.3668 18.2971 63.1027 19.2389 62.5748 19.9093C62.0467 20.566 61.2975 20.8938 60.3276 20.8938C59.3431 20.8938 58.5794 20.5584 58.0376 19.8879C57.4952 19.203 57.2242 18.2689 57.2242 17.0841V0.560974H46.9293V5.84799C46.4722 4.86795 45.8646 3.9997 45.0865 3.25773C44.173 2.38754 43.078 1.72046 41.801 1.25649C40.5237 0.792875 39.1151 0.560974 37.5739 0.560974H23.2339V6.71817C23.0585 5.82714 22.7591 5.00288 22.3019 4.26374C21.5596 3.06522 20.4826 2.15211 19.07 1.52424C17.6715 0.882064 16.0022 0.560974 14.0617 0.560974H0V29.4551H15.2604C17.2293 29.4551 18.9165 29.1373 20.3222 28.5022C21.5566 27.945 22.5166 27.153 23.2341 26.1555V29.4551H33.5289V20.1234L38.2374 29.4551H50.2873L42.7963 17.9188C44.5796 17.2057 45.871 16.2532 46.6702 15.0615C46.7689 14.9144 46.8429 14.7447 46.9291 14.5863V17.9188C46.9291 20.9298 47.3927 23.1986 48.3201 24.7251C49.3904 26.4946 50.942 27.8429 52.9752 28.7701C55.0086 29.6974 57.4591 30.1613 60.327 30.1613C62.1677 30.1613 63.8371 29.9687 65.3353 29.5835C66.8336 29.1845 68.1391 28.6059 69.252 27.85C70.3788 27.0941 71.2818 26.1702 71.9599 25.078C72.6372 23.987 73.0756 22.7562 73.2757 21.3863C73.2882 21.3056 73.2993 21.2325 73.3103 21.1545C73.5326 22.6119 73.9198 23.8065 74.4784 24.7255C75.5485 26.495 77.1007 27.8433 79.1332 28.7705C81.1671 29.6977 83.6174 30.1617 86.4853 30.1617C88.326 30.1617 89.9954 29.969 91.4935 29.5838C92.9917 29.1848 94.2973 28.6062 95.4103 27.8503C96.5371 27.0944 97.4401 26.1705 98.1182 25.0783C98.7955 23.9874 99.2339 22.7565 99.434 21.3867C99.6909 19.7173 99.8193 18.5615 99.8193 17.9194V9.93613H105.379V29.4558H115.738V9.93613H121.345V0.561686H99.82H99.686V0.560974ZM9.95251 7.58113C11.0368 7.58113 11.7752 7.60638 12.1676 7.65601C12.5597 7.70599 12.8847 7.83103 13.1415 8.03061C13.5269 8.33015 13.7194 8.8653 13.7194 9.63588C13.7194 10.3067 13.5055 10.7775 13.0774 11.0485C12.9061 11.1769 12.6348 11.2804 12.2641 11.3589C11.893 11.4375 11.1224 11.4766 9.95251 11.4766V7.58113V7.58113ZM14.1475 21.8355C13.6766 22.1779 12.8916 22.3491 11.7932 22.3491H9.95251V17.8332H11.7075C13.7764 17.8332 14.8111 18.5967 14.8111 20.1234C14.8111 20.9227 14.5897 21.493 14.1475 21.8355ZM22.1737 15.9925C21.3174 15.4075 20.176 14.9367 18.7491 14.5799C20.4328 14.0093 21.6313 13.2675 22.3448 12.354C22.7784 11.7902 23.0638 11.0718 23.2341 10.2336V16.9195C22.9289 16.5765 22.577 16.2662 22.1737 15.9925ZM37.4455 12.1613C37.2885 12.4895 36.9962 12.7537 36.5681 12.9531C35.9402 13.2245 34.9911 13.3598 33.7215 13.3598V8.45855C35.1769 8.45855 36.1898 8.62299 36.7608 8.95079C37.3741 9.30773 37.6809 9.97127 37.6809 10.9414C37.6809 11.4268 37.6023 11.8335 37.4455 12.1613Z" fill="white"/>
<path d="M132.35 22.9478C131.915 22.2539 131.302 21.7099 130.508 21.3164C129.713 20.9227 128.822 20.7253 127.834 20.7253C126.259 20.7253 124.954 21.156 123.92 22.0165C122.885 22.8782 122.368 23.9759 122.368 25.3104C122.368 26.2583 122.622 27.0725 123.129 27.753C123.637 28.4337 124.297 28.951 125.111 29.3044C125.925 29.658 126.779 29.8353 127.674 29.8353C128.582 29.8353 129.443 29.6552 130.257 29.2947C131.085 28.9482 131.749 28.4337 132.249 27.753C132.75 27.0723 133 26.2583 133 25.3104C133 24.4293 132.783 23.6416 132.35 22.9478Z" fill="white"/>
<path d="M132.26 0.583069H123.109V19.0835H132.26V0.583069Z" fill="white"/>
</svg>

<svg width="133" height="31" viewBox="0 0 154 31" fill="none" xmlns="http://www.w3.org/2000/svg"><path d="M99.686.561h-10.16v16.523c0 1.213-.265 2.155-.792 2.825-.529.657-1.278.985-2.248.985-.984 0-1.748-.336-2.29-1.006-.543-.685-.813-1.62-.813-2.804V.561H63.367v16.523c0 1.213-.264 2.155-.792 2.825-.528.657-1.278.985-2.247.985-.985 0-1.749-.336-2.29-1.006-.543-.685-.814-1.62-.814-2.804V.561H46.93v5.287a8.505 8.505 0 00-1.843-2.59c-.913-.87-2.008-1.538-3.285-2.002-1.277-.463-2.686-.695-4.227-.695h-14.34v6.157c-.176-.89-.475-1.715-.932-2.454-.742-1.199-1.82-2.112-3.232-2.74-1.398-.642-3.068-.963-5.008-.963H0v28.894h15.26c1.97 0 3.656-.318 5.062-.953 1.235-.557 2.195-1.349 2.912-2.346v3.3H33.53v-9.333l4.708 9.332h12.05l-7.49-11.536c1.783-.713 3.074-1.666 3.873-2.857.099-.148.173-.317.26-.476v3.333c0 3.01.463 5.28 1.39 6.806 1.07 1.77 2.622 3.118 4.655 4.045 2.034.927 4.484 1.391 7.352 1.391 1.84 0 3.51-.192 5.008-.578 1.499-.398 2.804-.977 3.917-1.733 1.127-.756 2.03-1.68 2.708-2.772.677-1.091 1.116-2.322 1.316-3.692l.034-.232c.223 1.458.61 2.652 1.168 3.572 1.07 1.769 2.623 3.117 4.655 4.044 2.034.928 4.484 1.392 7.352 1.392 1.841 0 3.51-.193 5.008-.578 1.499-.4 2.804-.978 3.917-1.734 1.127-.756 2.03-1.68 2.708-2.772.678-1.09 1.116-2.322 1.316-3.691.257-1.67.385-2.826.385-3.468V9.936h5.56v19.52h10.359V9.936h5.607V.562h-21.66V.56zM9.953 7.581c1.084 0 1.822.025 2.215.075.392.05.717.175.974.375.385.3.577.834.577 1.605 0 .67-.213 1.142-.642 1.413-.17.128-.442.231-.813.31-.371.079-1.142.118-2.311.118V7.58zm4.195 14.255c-.471.342-1.256.513-2.355.513h-1.84v-4.516h1.755c2.068 0 3.103.764 3.103 2.29 0 .8-.221 1.37-.663 1.712zm8.026-5.843c-.857-.585-1.998-1.056-3.425-1.413 1.684-.57 2.882-1.313 3.596-2.226.433-.564.719-1.282.89-2.12v6.685a5.685 5.685 0 00-1.061-.927zm15.272-3.832c-.157.329-.45.593-.878.792-.628.272-1.577.407-2.846.407V8.459c1.455 0 2.468.164 3.039.492.613.357.92 1.02.92 1.99 0 .486-.079.893-.235 1.22zm94.904 10.787c-.435-.694-1.048-1.238-1.842-1.632-.795-.393-1.686-.59-2.674-.59-1.575 0-2.88.43-3.914 1.29-1.035.862-1.552 1.96-1.552 3.294 0 .948.254 1.763.761 2.443a4.814 4.814 0 001.982 1.551 6.358 6.358 0 002.563.531c.908 0 1.769-.18 2.583-.54.828-.347 1.492-.861 1.992-1.542.501-.68.751-1.495.751-2.443 0-.88-.217-1.668-.65-2.362zM132.26.583h-9.151v18.5h9.151V.584z" fill="#fff"/></svg>
